!!!COM: Music21
!!!OTL: march_Glencoe--The
!!!OMV: march_Glencoe--The
**kern
*clefG2
*k[f#c#]
*D:
*M4/4
=1
8.f#L
16gJk
=
4a
4dd
4f#
4dd
=
8.aL
16f#Jk
16aKL
8.ddJ
4ff#
8ff#L
16ggL
16aaJJ
=
4.gg
8ee
8.cc#L
16aJk
8.bL
16cc#Jk
=
8.ddL
16cc#Jk
8.ddL
16bJk
4a
8.f#L
16gJk
=
4a
4dd
4f#
4dd
!!linebreak:original
=
8.aL
16f#Jk
16aKL
8.ddJ
4ff#
8ff#L
16ggL
16aaJJ
=
4.gg
8ee
8.cc#L
16aJk
8.bL
16cc#Jk
=
4dd
8.ddL
16cc#Jk
4dd
4ryy
=||
*M4/4
8.f#L
16gJk
=
4a
4dd
4f#
4dd
=
8.aL
16f#Jk
16aKL
8.ddJ
4ff#
8ff#L
16ggL
16aaJJ
!!linebreak:original
=
4.gg
8ee
8.cc#L
16aJk
8.bL
16cc#Jk
=
8.ddL
16cc#Jk
8.ddL
16bJk
4a
8.f#L
16gJk
=
4a
4dd
4f#
4dd
=
8.aL
16f#Jk
16aKL
8.ddJ
4ff#
8ff#L
16ggL
16aaJJ
=
4.gg
8ee
8.cc#L
16aJk
8.bL
16cc#Jk
=
4dd
8.ddL
16cc#Jk
4dd
4ryy
!!linebreak:original
=||
8.ff#L
16ggJk
2.ryy
=
4aa
8.aaL
16ggJk
8.ff#L
16ddJk
16ff#KL
8.aaJ
=
4gg
8.ggL
16eeJk
8.cc#L
16aJk
16cc#KL
8.eeJ
=
8.ddL
16cc#Jk
16ddKL
8.eeJ
8.ff#L
16eeJk
16ff#KL
8.aaJ
=
8.ggL
16ff#Jk
16ggKL
8.bbJ
4aa
8.ff#L
16ggJk
!!linebreak:original
=
4aa
8.aaL
16ggJk
8.ff#L
16ddJk
16ff#KL
8.aaJ
=
4gg
8.ggL
16eeJk
8.cc#L
16aJk
16cc#KL
8.eeJ
=
8.ddL
16cc#Jk
8.ddL
16ff#Jk
16eeKL
8.aaJ
16cc#KL
8.eeJ
=
4dd
8.ddL
16cc#Jk
4dd
8.ff#L
16ggJk
=
4aa
8.aaL
16ggJk
8.ff#L
16ddJk
16ff#KL
8.aaJ
!!linebreak:original
=
4gg
8.ggL
16eeJk
8.cc#L
16aJk
16cc#KL
8.eeJ
=
8.ddL
16cc#Jk
16ddKL
8.eeJ
8.ff#L
16eeJk
16ff#KL
8.aaJ
=
8.ggL
16ff#Jk
16ggKL
8.bbJ
4aa
8.ff#L
16ggJk
=
16aaLL
16ggJ
8ff#J
8.ggL
16eeJk
8.ff#L
16ddJk
16eeKL
8.cc#J
!!linebreak:original
=
8.ddL
16bJk
8.aL
16f#Jk
8.dL
16f#Jk
16aKL
8.ddJ
=
8.bL
16gJk
16bKL
8.ddJ
8.cc#L
16aJk
16cc#KL
8.eeJ
=
4dd
8.ddL
16cc#Jk
4dd
4ryy
=||
*-
